X:1
T:Pewsey
%%score 1 2 3
L:1/8
M:3/4
K:E
V:1 treble nm="Soprano" snm="S."
V:2 treble-8 nm="Tenor" snm="T."
V:3 bass nm="Bass" snm="B."
V:1
 E2 | (B3 A) G2 | (A2 G2) F2 | E4 E2 | B4 (ec) | (B2 A2) G2 | F4 z2 | (F>G F2) B2 | F4 d2 | %9
 (ed c2) f2 | d4 z2 | B4 e2 | B4 E2 | (F2 G2) A2 | G4 z2 | (E>F E2) B,2 | (G>F G2) E2 | %17
 (BA Be) (dc) | B4 z2 | (Bc/d/ e2) c2 | (Bc/d/ e2) A2 | G2 F4 | E6 |] %23
V:2
 B2 | (e3 f) g2 | (f2 e2) d2 | e4 B2 | (e2 d2) c2 | (d2 f2) e2 | d4 z2 | (d>e d2) (fd) | c4 B2 | %9
 (cB B2) ^A2 | B4 z2 | (G2 F2) E2 | (E2 D2) B2 | (A2 G2) F2 | E4 z2 | B4 B2 | B4 B2 | %17
 (GF Gc) (BA) | G4 z2 | (GA/B/ c2) A2 | (GA/B/ c2) E2 | B2 d4 | e6 |] %23
V:3
 E,2 | (G,3 F,) E,2 | (A,2 B,2) B,,2 | E,4 A,2 | G,4 A,2 | (B,2 D,2) E,2 | B,6 | B,4 (DB,) | %8
 ^A,4 B,2 | (E,2 F,2) F,2 | B,,6 | (E,2 D,2) C,2 | (B,,2 A,,2) G,,2 | (A,,2 B,,2) B,,2 | %14
 (E,2 D,C, B,,A,,) | (G,,>A,, G,,2) B,,2 | (E,>D, E,2) E,2 | E,4 A,,2 | E,3 A,, G,,F,, | E,,4 E,2 | %20
 E,4 C2 | B,2 B,,4 | E,6 |] %23

